X: 18
T:Mrs. Crowley's Polka
M:2/4
L:1/8
R:Polka
Z:
K:G
DG EG/2E/2|DG EG/2E/2|DG AG/2A/2|BA A2|!
DG EG/2E/2|DG EG/2E/2|DG AG/2A/2|BG G2:|!
|:dB gB|dB gB|dB gB|cA AB/2c/2|!
dB gB|dB gB|GB AG/2A/2|BG G2:|]!
